storage/app/icons/phosphoricons/fill/wall-fill.svg

<svg xmlns="http://www.w3.org/2000/svg" fill="currentColor" viewBox="0 0 256 256"><path d="M232 56v32a4 4 0 0 1-4 4h-92V52a4 4 0 0 1 4-4h84a8 8 0 0 1 8 8m-4 52h-44v44h44a4 4 0 0 0 4-4v-36a4 4 0 0 0-4-4M88 152h80v-44H88Zm-60 0h44v-44H28a4 4 0 0 0-4 4v36a4 4 0 0 0 4 4m200 16h-92v36a4 4 0 0 0 4 4h84a8 8 0 0 0 8-8v-28a4 4 0 0 0-4-4M28 92h92V52a4 4 0 0 0-4-4H32a8 8 0 0 0-8 8v32a4 4 0 0 0 4 4m-4 80v28a8 8 0 0 0 8 8h84a4 4 0 0 0 4-4v-36H28a4 4 0 0 0-4 4"/></svg>

<svg xmlns="http://www.w3.org/2000/svg" viewBox="0 0 256 256" fill="currentColor"><path d="M232,56V88a4,4,0,0,1-4,4H136V52a4,4,0,0,1,4-4h84A8,8,0,0,1,232,56Zm-4,52H184v44h44a4,4,0,0,0,4-4V112A4,4,0,0,0,228,108ZM88,152h80V108H88Zm-60,0H72V108H28a4,4,0,0,0-4,4v36A4,4,0,0,0,28,152Zm200,16H136v36a4,4,0,0,0,4,4h84a8,8,0,0,0,8-8V172A4,4,0,0,0,228,168ZM28,92h92V52a4,4,0,0,0-4-4H32a8,8,0,0,0-8,8V88A4,4,0,0,0,28,92Zm-4,80v28a8,8,0,0,0,8,8h84a4,4,0,0,0,4-4V168H28A4,4,0,0,0,24,172Z"/></svg>
